X:54
T:Crock of Gold
Z: id:dc-reel-369
M:C
L:1/8
K:G Major
B3B BAGE|G3A GEDB,|DEGA BAGA|B2dB BAA2|!
B3B BAGE|G3A GED2|g2fg egdB|DEGA BGG2:|!
eaa2 bage|a2ba gede|gedB GABd|egdB BAA2|!
eaa2 bage|a2ba gede|g2fg egdB|DEGA BGG2:|!

